icons/media-pause-1.svg

<svg fill="none" viewBox="0 0 24 24"><path stroke="currentColor" stroke-linecap="round" stroke-linejoin="round" stroke-width="2" d="M9.6 15.6v-7.2m4.8 7.2v-7.2m-8.4 13.2h12a3.6 3.6 0 0 0 3.6-3.6v-12a3.6 3.6 0 0 0-3.6-3.6h-12a3.6 3.6 0 0 0-3.6 3.6v12a3.6 3.6 0 0 0 3.6 3.6Z"/></svg>

<svg fill="none" viewBox="0 0 24 24"><path stroke="currentColor" stroke-linecap="round" stroke-linejoin="round" stroke-width="2" d="M9.6 15.6V8.4m4.8 7.2V8.4M6 21.6h12a3.6 3.6 0 0 0 3.6-3.6V6A3.6 3.6 0 0 0 18 2.4H6A3.6 3.6 0 0 0 2.4 6v12A3.6 3.6 0 0 0 6 21.6"/></svg>
